assets/Four leaf clover/Flat/four_leaf_clover_flat.svg

<svg width="32" height="32" viewBox="0 0 32 32" fill="none" xmlns="http://www.w3.org/2000/svg">
<path d="M20.663 29.841C21.0929 30.0616 21.6203 29.892 21.841 29.462C22.0616 29.0321 21.892 28.5047 21.462 28.284L20.663 29.841ZM21.462 28.284C18.7537 26.8941 17.6508 25.0511 17.185 23.015C16.6948 20.872 16.9062 18.5746 16.9062 16.125H15.1562C15.1562 18.3504 14.9302 21.0061 15.4791 23.4053C16.0524 25.9114 17.4651 28.1997 20.663 29.841L21.462 28.284Z" fill="#008463"/>
<path d="M16.0246 9.23656C15.9304 6.75556 15.5115 4.16996 13.8906 2.81248C11.6381 0.925953 8.21875 2.95312 8.70313 5.73435C5.56253 5.40623 3.44603 9.64468 6.60938 11.6406C8.11335 12.5895 9.65324 12.8871 11.4582 12.9681C9.63186 13.0697 8.07758 13.392 6.55988 14.3496C3.39653 16.3455 5.51303 20.584 8.65363 20.2559C8.16925 23.0371 11.497 24.9491 13.8411 23.1777C15.288 22.0844 15.811 20.1995 15.9787 18.2127C16.1672 20.1995 16.7117 22.0844 18.1586 23.1777C20.5027 24.9491 23.8304 23.0371 23.3461 20.2559C26.4867 20.584 28.6032 16.3455 25.4398 14.3496C23.934 13.3995 22.3657 13.0748 20.5353 12.9706C22.3643 12.8931 23.9204 12.5993 25.4398 11.6406C28.6032 9.64468 26.4867 5.40623 23.3461 5.73435C23.8304 2.95312 20.4111 0.925953 18.1586 2.81248C16.5377 4.16996 16.1188 6.75556 16.0246 9.23656Z" fill="#00D26A"/>
</svg>

<svg xmlns="http://www.w3.org/2000/svg" width="32" height="32" fill="none"><path fill="#008463" d="M20.663 29.841a.875.875 0 0 0 .799-1.557l-.799 1.557Zm.799-1.557c-2.708-1.39-3.811-3.233-4.277-5.269-.49-2.143-.279-4.44-.279-6.89h-1.75c0 2.225-.226 4.881.323 7.28.573 2.506 1.986 4.795 5.184 6.436l.799-1.557Z"/><path fill="#00D26A" d="M16.025 9.237c-.095-2.481-.513-5.067-2.134-6.425-2.253-1.886-5.672.141-5.188 2.922-3.14-.328-5.257 3.91-2.094 5.907 1.504.948 3.044 1.246 4.85 1.327-1.827.102-3.381.424-4.9 1.382-3.162 1.996-1.046 6.234 2.095 5.906-.485 2.781 2.843 4.693 5.187 2.922 1.447-1.094 1.97-2.979 2.138-4.965.188 1.986.733 3.871 2.18 4.965 2.344 1.771 5.671-.14 5.187-2.922 3.14.328 5.257-3.91 2.094-5.906-1.506-.95-3.074-1.275-4.905-1.38 1.83-.077 3.385-.37 4.905-1.33 3.163-1.995 1.047-6.234-2.094-5.906.484-2.78-2.935-4.808-5.187-2.922-1.621 1.358-2.04 3.944-2.134 6.425Z"/></svg>
